X: 2257
T: the LOW BACKED CAR
Q: "Irish Jig."
%R: jig
B: James Kerr "Merry Melodies" v.2 p.28 #257
Z: 2016 John Chambers <jc:trillian.mit.edu>
M: 6/8
L: 1/8
K: G
uD |\
vG2vB uB2ud | d2c A2F | G2B d2d | d3- d2uB |\
cBc A2A | BAB GAB | c2A G2F | G3- G2 ::\
uB |\
vG2vg ug2ue | e2d d2B | G2g g2e | d3 cBA |
G2g g2e | e2d dcB | A2G A2B | d3 cBA |\
GED G2G | G3- G2uB | AGE uA2uA | A3- (ABc) |\
dcB dcB | gfe dBA | GED G2G | G3- G2 :|
